static/img/kroki/50dfd07415cbc429f511448542960bcc.svg

<?xml version="1.0" encoding="us-ascii" standalone="no"?><svg xmlns="http://www.w3.org/2000/svg" xmlns:xlink="http://www.w3.org/1999/xlink" contentStyleType="text/css" height="374px" preserveAspectRatio="none" style="width:339px;height:374px;" version="1.1" viewBox="0 0 339 374" width="339px" zoomAndPan="magnify"><defs/><g><!--class digitalocean_firewall--><g id="elem_digitalocean_firewall"><rect codeLine="23" fill="#3D176E" height="39.7891" id="digitalocean_firewall" rx="2.5" ry="2.5" style="stroke:#000D19;stroke-width:0.5;" width="215" x="7" y="328.58"/><ellipse cx="22" cy="348.4745" fill="#ADD1B2" rx="11" ry="11" style="stroke:#181818;stroke-width:1.0;"/><path d="M24.9688,354.1152 Q24.3906,354.412 23.75,354.5527 Q23.1094,354.7089 22.4063,354.7089 Q19.9063,354.7089 18.5781,353.0683 Q17.2656,351.412 17.2656,348.287 Q17.2656,345.162 18.5781,343.5058 Q19.9063,341.8495 22.4063,341.8495 Q23.1094,341.8495 23.75,342.0058 Q24.4063,342.162 24.9688,342.4589 L24.9688,345.1777 Q24.3438,344.5995 23.75,344.3339 Q23.1563,344.0527 22.5313,344.0527 Q21.1875,344.0527 20.5,345.1308 Q19.8125,346.1933 19.8125,348.287 Q19.8125,350.3808 20.5,351.4589 Q21.1875,352.5214 22.5313,352.5214 Q23.1563,352.5214 23.75,352.2558 Q24.3438,351.9745 24.9688,351.3964 L24.9688,354.1152 Z " fill="#000000"/><text fill="#D9B8FF" font-family="Helvetica" font-size="17" lengthAdjust="spacing" textLength="173" x="41" y="354.3598">digitalocean_firewall</text></g><!--class digitalocean_resource--><g id="elem_digitalocean_resource"><rect codeLine="26" fill="#3D176E" height="39.7891" id="digitalocean_resource" rx="2.5" ry="2.5" style="stroke:#000D19;stroke-width:0.5;" width="223" x="109" y="167.79"/><ellipse cx="124" cy="187.6845" fill="#ADD1B2" rx="11" ry="11" style="stroke:#181818;stroke-width:1.0;"/><path d="M126.9688,193.3252 Q126.3906,193.622 125.75,193.7627 Q125.1094,193.9189 124.4063,193.9189 Q121.9063,193.9189 120.5781,192.2783 Q119.2656,190.622 119.2656,187.497 Q119.2656,184.372 120.5781,182.7158 Q121.9063,181.0595 124.4063,181.0595 Q125.1094,181.0595 125.75,181.2158 Q126.4063,181.372 126.9688,181.6689 L126.9688,184.3877 Q126.3438,183.8095 125.75,183.5439 Q125.1563,183.2627 124.5313,183.2627 Q123.1875,183.2627 122.5,184.3408 Q121.8125,185.4033 121.8125,187.497 Q121.8125,189.5908 122.5,190.6689 Q123.1875,191.7314 124.5313,191.7314 Q125.1563,191.7314 125.75,191.4658 Q126.3438,191.1845 126.9688,190.6064 L126.9688,193.3252 Z " fill="#000000"/><text fill="#D9B8FF" font-family="Helvetica" font-size="17" lengthAdjust="spacing" textLength="181" x="143" y="193.5698">digitalocean_resource</text></g><!--class resource--><g id="elem_resource"><rect codeLine="29" fill="#3D176E" height="39.7891" id="resource" rx="2.5" ry="2.5" style="stroke:#000D19;stroke-width:0.5;" width="113" x="35" y="7"/><ellipse cx="50" cy="26.8945" fill="#ADD1B2" rx="11" ry="11" style="stroke:#181818;stroke-width:1.0;"/><path d="M52.9688,32.5352 Q52.3906,32.832 51.75,32.9727 Q51.1094,33.1289 50.4063,33.1289 Q47.9063,33.1289 46.5781,31.4883 Q45.2656,29.832 45.2656,26.707 Q45.2656,23.582 46.5781,21.9258 Q47.9063,20.2695 50.4063,20.2695 Q51.1094,20.2695 51.75,20.4258 Q52.4063,20.582 52.9688,20.8789 L52.9688,23.5977 Q52.3438,23.0195 51.75,22.7539 Q51.1563,22.4727 50.5313,22.4727 Q49.1875,22.4727 48.5,23.5508 Q47.8125,24.6133 47.8125,26.707 Q47.8125,28.8008 48.5,29.8789 Q49.1875,30.9414 50.5313,30.9414 Q51.1563,30.9414 51.75,30.6758 Q52.3438,30.3945 52.9688,29.8164 L52.9688,32.5352 Z " fill="#000000"/><text fill="#D9B8FF" font-family="Helvetica" font-size="17" lengthAdjust="spacing" textLength="71" x="69" y="32.7798">resource</text></g><!--reverse link digitalocean_resource to digitalocean_firewall--><g id="link_digitalocean_resource_digitalocean_firewall"><path codeLine="32" d="M197.7175,222.8116 C177.3475,253.3316 147.73,297.69 127.33,328.25 " fill="none" id="digitalocean_resource-backto-digitalocean_firewall" style="stroke:#FFAF37;stroke-width:2.0;"/><polygon fill="none" points="207.71,207.84,192.7269,219.4808,202.708,226.1425,207.71,207.84" style="stroke:#FFAF37;stroke-width:2.0;"/></g><!--reverse link resource to digitalocean_firewall--><g id="link_resource_digitalocean_firewall"><path codeLine="33" d="M89.6438,65.0706 C88.1138,97.9706 86.74,149.28 91.5,207.58 C95.05,251 104.68,301.26 110.29,328.14 " fill="none" id="resource-backto-digitalocean_firewall" style="stroke:#FFAF37;stroke-width:2.0;"/><polygon fill="none" points="90.48,47.09,83.6503,64.7918,95.6373,65.3493,90.48,47.09" style="stroke:#FFAF37;stroke-width:2.0;"/></g><!--reverse link resource to digitalocean_resource--><g id="link_resource_digitalocean_resource"><path codeLine="34" d="M118.4086,61.0217 C143.1986,91.5417 180.06,136.9 204.88,167.46 " fill="none" id="resource-backto-digitalocean_resource" style="stroke:#FFAF37;stroke-width:2.0;"/><polygon fill="none" points="107.06,47.05,113.7514,64.8046,123.0658,57.2389,107.06,47.05" style="stroke:#FFAF37;stroke-width:2.0;"/></g><!--SRC=[fT0zJyCm40RWFR_2KkT82HMaaLZQIWYM2b5sT8dFYHN7ZiuEKVduxn1AaPkaxS1wxoFVUoubHuPrutQinZf3ie6jf6w0e6PB8jEjZJB4PaA0c2V3yCveTn5ie4PsZ-eLdSnXA9vBcLSQhMLNNhI2l2h8j9hldtS4sdv7g9sdrWgiNJf7CciTUcLucYs46ChXexCvZvCR73537EcNH574utH8BguwU_UVsCetPB7_QHlZS5HpjE97dMtP2w_awD13VhBZ8t0kTS6klTdJlXDffAFvjWHkkbuBKDPVOnqI6hThS3sw2jC55yaaVZY5Wxp_EiPb8HqeaoFe5o49Er2AlGV1vnGWjAQb77rmF9lcjnzX64xl2lwD3bdm1G00]--></g></svg>

<svg xmlns="http://www.w3.org/2000/svg" width="339" height="374" viewBox="0 0 339 374"><rect width="215" height="39.789" x="7" y="328.58" fill="#3D176E" rx="2.5" ry="2.5" style="stroke:#000d19;stroke-width:.5"/><circle cx="22" cy="348.474" r="11" fill="#ADD1B2" style="stroke:#181818;stroke-width:1"/><path d="M24.969 354.115q-.578.297-1.219.438-.64.156-1.344.156-2.5 0-3.828-1.64-1.312-1.657-1.312-4.782t1.312-4.781q1.328-1.656 3.828-1.656.703 0 1.344.156.656.156 1.219.453v2.719q-.625-.579-1.219-.844-.594-.281-1.219-.281-1.343 0-2.031 1.078-.687 1.062-.687 3.156t.687 3.172q.688 1.062 2.031 1.062.625 0 1.219-.265.594-.281 1.219-.86z"/><text x="41" y="354.36" fill="#D9B8FF" font-family="Helvetica" font-size="17" textLength="173">digitalocean_firewall</text><rect width="223" height="39.789" x="109" y="167.79" fill="#3D176E" rx="2.5" ry="2.5" style="stroke:#000d19;stroke-width:.5"/><circle cx="124" cy="187.685" r="11" fill="#ADD1B2" style="stroke:#181818;stroke-width:1"/><path d="M126.969 193.325q-.578.297-1.219.438-.64.156-1.344.156-2.5 0-3.828-1.64-1.312-1.657-1.312-4.782t1.312-4.781q1.328-1.656 3.828-1.656.703 0 1.344.156.656.156 1.219.453v2.719q-.625-.578-1.219-.844-.594-.281-1.219-.281-1.344 0-2.031 1.078-.687 1.062-.687 3.156t.687 3.172q.688 1.062 2.031 1.062.625 0 1.219-.265.594-.281 1.219-.86z"/><text x="143" y="193.57" fill="#D9B8FF" font-family="Helvetica" font-size="17" textLength="181">digitalocean_resource</text><rect width="113" height="39.789" x="35" y="7" fill="#3D176E" rx="2.5" ry="2.5" style="stroke:#000d19;stroke-width:.5"/><circle cx="50" cy="26.895" r="11" fill="#ADD1B2" style="stroke:#181818;stroke-width:1"/><path d="M52.969 32.535q-.578.297-1.219.438-.64.156-1.344.156-2.5 0-3.828-1.64-1.312-1.657-1.312-4.782t1.312-4.781q1.328-1.656 3.828-1.656.703 0 1.344.156.656.156 1.219.453v2.719q-.625-.578-1.219-.844-.594-.281-1.219-.281-1.343 0-2.031 1.078-.687 1.062-.687 3.156t.687 3.172q.688 1.062 2.031 1.062.625 0 1.219-.265.594-.281 1.219-.86z"/><text x="69" y="32.78" fill="#D9B8FF" font-family="Helvetica" font-size="17" textLength="71">resource</text><path fill="none" d="M197.718 222.812c-20.37 30.52-49.988 74.878-70.388 105.438m80.38-120.41-14.983 11.64 9.981 6.663z" style="stroke:#ffaf37;stroke-width:2"/><g fill="none"><path d="M89.644 65.07c-1.53 32.9-2.904 84.21 1.856 142.51 3.55 43.42 13.18 93.68 18.79 120.56" style="stroke:#ffaf37;stroke-width:2"/><path d="m90.48 47.09-6.83 17.702 11.987.557z" style="stroke:#ffaf37;stroke-width:2"/></g><path fill="none" d="M118.409 61.022c24.79 30.52 61.651 75.878 86.471 106.438M107.06 47.05l6.691 17.755 9.315-7.566z" style="stroke:#ffaf37;stroke-width:2"/></svg>
